!!!ONR: No. 14
!! From Harold Courlander, "Haiti Singing"
!! Chapel Hill: University of North Carolina Press, 1939
!! Copyright University of North Carolina Press
!!!ENC: D. Huron
**kern
*clefG2
*k[]
*M2/4
=1-
8g
8a
8g
8a
=2
8g
8g
8a
[8cc
=3
4cc]
8g
8g
=4
2g
=5
8c
8e
8d
8e
=6
8c
8c
8d
[8e
=7
4e]
8c
8c
=8
2c
=9
8cc
8ee
8dd
8ee
=10
4.dd
8cc
=11
8a
8g
8a
8e
=12
(4.g
8cc)
=13
8cc
8cc
8dd
8ee
=14
4.dd
8cc
=15
8a
8g
8a
8e
=16
2g
=17
8c
8e
8d
8e
=18
8c
8c
8d
[8e
=19
4e]
8c
8c
=20
2c
==
*-
